X:3062
T:Claddach Baleshare tune, The
S:Fiona
R:Strathspey
O:England
M:4/4
C:Fiona Durance
A:Leeds
K:DDor
^cA d>>B c<A FD|F>E D<F Ad ^cA|
^cB d>>B c<A FD\
|1 F>E D>^C C<E D2 :|2 F>E D>^C C<(D D)E|:
F>E FA ^ce d2|g>f ed c<A A>E|
F>E F<A ^ce a2\
|1 (3afa geg c<c d>E :|2 (3_bgb (3afa (3e^ced2||
W:Copyright Fiona Durance


